X:90
T:Red Haired Boy
C:Traditional - Bluegrass version
M:4/4
L:1/8
Q:1/8=440
K:A
|EFAB ABcd|efec d2cd|e2A2 ABc=c|BA=G2 G4|
EFAB ABcd|efec d2cd|e2a2 afec|BAGB A4|
EFAB ABcd|efec dcd^d|efed cBAc|BA=GB AGFA|
EFAB ABcd|efec d2cd|e2a2 afec|BAGB A2ef |
|:=g2fg e2fg|a=gfe d2cd|efed cBAc|BA=GB AGFA|
EFAB ABcd|efec d2cd|e2a2 afec|1 BAGB A2ef:|2 BAGB A4|
